src/icons/slurm.svg

<svg xmlns="http://www.w3.org/2000/svg" width="16" height="16" fill="none"><path fill="#89DDFF" d="M7.349 4c-.354 0-.64.258-.64.576v1.11c0 .317.286.575.64.575H8.62c.354 0 .64-.258.64-.576V4.576c0-.318-.286-.576-.64-.576zm3.125 1.755c-.266 0-.481.197-.481.44v.846c0 .243.215.44.481.44h.955c.266 0 .481-.197.481-.44v-.846c0-.243-.215-.44-.48-.44zm-5.935 0c-.265 0-.48.197-.48.44v.846c0 .243.215.44.48.44h.956c.265 0 .48-.197.48-.44v-.846c0-.243-.215-.44-.48-.44zm2.81.97c-.354 0-.64.258-.64.577V8.41c0 .318.286.576.64.576H8.62c.354 0 .64-.258.64-.576V7.3c0-.318-.286-.576-.64-.576zm5.583.52c-.198 0-.358.147-.358.328v.63c0 .18.16.326.358.326h.71c.198 0 .358-.146.358-.327v-.63c0-.18-.16-.327-.358-.327zm-10.574 0c-.198 0-.358.147-.358.328v.63c0 .18.16.326.358.326h.71c.198 0 .358-.146.358-.327v-.63c0-.18-.16-.327-.358-.327zm8.116.663c-.266 0-.481.197-.481.44v.846c0 .243.215.44.481.44h.955c.266 0 .481-.197.481-.44v-.847c0-.242-.215-.44-.48-.44zm-5.935 0c-.265 0-.48.197-.48.44v.846c0 .243.215.44.48.44h.956c.265 0 .48-.197.48-.44v-.847c0-.242-.215-.44-.48-.44zm8.393 1.066c-.198 0-.358.147-.358.327v.63c0 .18.16.327.358.327h.71c.198 0 .358-.147.358-.327V9.3c0-.18-.16-.327-.358-.327zm-10.574 0c-.198 0-.358.147-.358.327v.63c0 .18.16.327.358.327h.71c.198 0 .358-.147.358-.327V9.3c0-.18-.16-.327-.358-.327zm4.99.453c-.353 0-.64.258-.64.576v1.11c0 .318.287.575.64.575H8.62c.354 0 .64-.257.64-.576v-1.109c0-.318-.286-.576-.64-.576zm3.126.634c-.266 0-.481.197-.481.44v.846c0 .243.215.44.481.44h.955c.266 0 .481-.197.481-.44v-.846c0-.243-.215-.44-.48-.44zm-5.935 0c-.265 0-.48.197-.48.44v.846c0 .243.215.44.48.44h.956c.265 0 .48-.197.48-.44v-.846c0-.243-.215-.44-.48-.44zm8.393.655c-.198 0-.358.147-.358.328v.629c0 .18.16.327.358.327h.71c.198 0 .358-.146.358-.327v-.63c0-.18-.16-.327-.358-.327zm-10.574 0c-.198 0-.358.147-.358.328v.629c0 .18.16.327.358.327h.71c.198 0 .358-.146.358-.327v-.63c0-.18-.16-.327-.358-.327z"/></svg>

<svg width="16" height="16" viewBox="0 0 16 16" fill="none" xmlns="http://www.w3.org/2000/svg">
<path d="M7.349 4C6.995 4 6.709 4.258 6.709 4.576V5.686C6.709 6.003 6.995 6.261 7.349 6.261H8.62C8.974 6.261 9.26 6.003 9.26 5.685V4.576C9.26 4.258 8.974 4 8.62 4H7.349ZM10.474 5.755C10.208 5.755 9.993 5.952 9.993 6.195V7.041C9.993 7.284 10.208 7.481 10.474 7.481H11.429C11.695 7.481 11.91 7.284 11.91 7.041V6.195C11.91 5.952 11.695 5.755 11.43 5.755H10.474ZM4.539 5.755C4.274 5.755 4.059 5.952 4.059 6.195V7.041C4.059 7.284 4.274 7.481 4.539 7.481H5.495C5.76 7.481 5.975 7.284 5.975 7.041V6.195C5.975 5.952 5.76 5.755 5.495 5.755H4.539ZM7.349 6.725C6.995 6.725 6.709 6.983 6.709 7.302V8.41C6.709 8.728 6.995 8.986 7.349 8.986H8.62C8.974 8.986 9.26 8.728 9.26 8.41V7.3C9.26 6.982 8.974 6.724 8.62 6.724L7.349 6.725ZM12.932 7.245C12.734 7.245 12.574 7.392 12.574 7.573V8.203C12.574 8.383 12.734 8.529 12.932 8.529H13.642C13.84 8.529 14 8.383 14 8.202V7.572C14 7.392 13.84 7.245 13.642 7.245H12.932ZM2.358 7.245C2.16 7.245 2 7.392 2 7.573V8.203C2 8.383 2.16 8.529 2.358 8.529H3.068C3.266 8.529 3.426 8.383 3.426 8.202V7.572C3.426 7.392 3.266 7.245 3.068 7.245H2.358ZM10.474 7.908C10.208 7.908 9.993 8.105 9.993 8.348V9.194C9.993 9.437 10.208 9.634 10.474 9.634H11.429C11.695 9.634 11.91 9.437 11.91 9.194V8.347C11.91 8.105 11.695 7.907 11.43 7.907L10.474 7.908ZM4.539 7.908C4.274 7.908 4.059 8.105 4.059 8.348V9.194C4.059 9.437 4.274 9.634 4.539 9.634H5.495C5.76 9.634 5.975 9.437 5.975 9.194V8.347C5.975 8.105 5.76 7.907 5.495 7.907L4.539 7.908ZM12.932 8.974C12.734 8.974 12.574 9.121 12.574 9.301V9.931C12.574 10.111 12.734 10.258 12.932 10.258H13.642C13.84 10.258 14 10.111 14 9.931V9.3C14 9.12 13.84 8.973 13.642 8.973L12.932 8.974ZM2.358 8.974C2.16 8.974 2 9.121 2 9.301V9.931C2 10.111 2.16 10.258 2.358 10.258H3.068C3.266 10.258 3.426 10.111 3.426 9.931V9.3C3.426 9.12 3.266 8.973 3.068 8.973L2.358 8.974ZM7.348 9.427C6.995 9.427 6.708 9.685 6.708 10.003V11.113C6.708 11.431 6.995 11.688 7.348 11.688H8.62C8.974 11.688 9.26 11.431 9.26 11.112V10.003C9.26 9.685 8.974 9.427 8.62 9.427H7.348ZM10.474 10.061C10.208 10.061 9.993 10.258 9.993 10.501V11.347C9.993 11.59 10.208 11.787 10.474 11.787H11.429C11.695 11.787 11.91 11.59 11.91 11.347V10.501C11.91 10.258 11.695 10.061 11.43 10.061H10.474ZM4.539 10.061C4.274 10.061 4.059 10.258 4.059 10.501V11.347C4.059 11.59 4.274 11.787 4.539 11.787H5.495C5.76 11.787 5.975 11.59 5.975 11.347V10.501C5.975 10.258 5.76 10.061 5.495 10.061H4.539ZM12.932 10.716C12.734 10.716 12.574 10.863 12.574 11.044V11.673C12.574 11.853 12.734 12 12.932 12H13.642C13.84 12 14 11.854 14 11.673V11.043C14 10.863 13.84 10.716 13.642 10.716H12.932ZM2.358 10.716C2.16 10.716 2 10.863 2 11.044V11.673C2 11.853 2.16 12 2.358 12H3.068C3.266 12 3.426 11.854 3.426 11.673V11.043C3.426 10.863 3.266 10.716 3.068 10.716H2.358Z" fill="#89DDFF"/>
</svg>
